static/favicons/safari-pinned-tab.svg

<?xml version="1.0" standalone="no"?>
<!DOCTYPE svg PUBLIC "-//W3C//DTD SVG 20010904//EN"
 "http://www.w3.org/TR/2001/REC-SVG-20010904/DTD/svg10.dtd">
<svg version="1.0" xmlns="http://www.w3.org/2000/svg"
 width="107.000000pt" height="107.000000pt" viewBox="0 0 107.000000 107.000000"
 preserveAspectRatio="xMidYMid meet">

<g transform="translate(0.000000,1024.000000) scale(0.100000,-0.100000)"
fill="#ff3860" stroke="none">
<path d="M3465 8849 c-220 -29 -429 -170 -546 -370 -244 -419 -238 -1008 16
-1534 164 -340 428 -604 708 -710 206 -77 408 -66 607 35 149 75 254 185 340
357 101 202 142 386 142 633 -1 617 -302 1203 -757 1476 -154 93 -345 135
-510 113z"/>
<path d="M6588 8844 c-198 -36 -374 -138 -564 -330 -290 -292 -483 -785 -484
-1233 0 -430 157 -798 417 -974 274 -184 631 -156 923 72 302 237 502 557 601
961 39 163 51 262 51 440 1 178 -15 278 -68 445 -64 200 -128 308 -251 426
-118 112 -253 177 -416 199 -96 12 -112 12 -209 -6z"/>
<path d="M1535 6708 c-316 -59 -525 -262 -631 -613 -26 -85 -28 -101 -28 -285
0 -172 2 -205 22 -280 70 -259 165 -437 321 -603 131 -137 289 -240 461 -298
90 -31 103 -33 250 -33 136 -1 164 2 230 22 251 79 407 236 518 522 56 145 77
373 49 535 -38 214 -130 436 -244 590 -113 152 -308 305 -486 382 -144 63
-326 87 -462 61z"/>
<path d="M8500 6714 c-200 -39 -355 -116 -538 -268 -233 -194 -385 -494 -422
-836 -43 -393 137 -778 436 -932 142 -73 185 -83 364 -82 142 0 162 3 240 28
237 79 445 235 587 442 207 303 287 671 213 979 -100 419 -367 657 -750 670
-58 2 -116 1 -130 -1z"/>
<path d="M5020 5644 c-465 -54 -862 -239 -1410 -658 -224 -171 -504 -428 -666
-611 -456 -517 -783 -1058 -918 -1523 -49 -170 -64 -248 -78 -411 -31 -377 82
-642 358 -835 234 -165 632 -246 1012 -206 263 28 487 79 899 206 406 125 613
173 827 193 219 21 511 -33 991 -184 618 -195 969 -252 1313 -214 447 49 748
223 898 520 54 108 75 205 81 367 11 299 -58 584 -234 967 -232 502 -713 1127
-1183 1534 -554 480 -1051 755 -1515 837 -81 14 -311 26 -375 18z"/>
</g>
</svg>

<?xml version="1.0" standalone="no"?>
<!DOCTYPE svg PUBLIC "-//W3C//DTD SVG 1.0//EN" "http://www.w3.org/TR/2001/REC-SVG-20010904/DTD/svg10.dtd">
<svg xmlns="http://www.w3.org/2000/svg" xmlns:xlink="http://www.w3.org/1999/xlink" id="body_1" width="96" height="96">

<g transform="matrix(0.09375 0 0 0.09375 0 0)">
	<g transform="matrix(0.1 0 -0 -0.1 0 1024)">
        <path d="M3465 8849C 3245 8820 3036 8679 2919 8479C 2675 8060 2681 7471 2935 6945C 3099 6605 3363 6341 3643 6235C 3849 6158 4051 6169 4250 6270C 4399 6345 4504 6455 4590 6627C 4691 6829 4732 7013 4732 7260C 4731 7877 4430 8463 3975 8736C 3821 8829 3630 8871 3465 8849z" stroke="none" fill="#000000" fill-rule="nonzero" />
        <path d="M6588 8844C 6390 8808 6214 8706 6024 8514C 5734 8222 5541 7729 5540 7281C 5540 6851 5697 6483 5957 6307C 6231 6123 6588 6151 6880 6379C 7182 6616 7382 6936 7481 7340C 7520 7503 7532 7602 7532 7780C 7533 7958 7517 8058 7464 8225C 7400 8425 7336 8533 7213 8651C 7095 8763 6960 8828 6797 8850C 6701 8862 6685 8862 6588 8844z" stroke="none" fill="#000000" fill-rule="nonzero" />
        <path d="M1535 6708C 1219 6649 1010 6446 904 6095C 878 6010 876 5994 876 5810C 876 5638 878 5605 898 5530C 968 5271 1063 5093 1219 4927C 1350 4790 1508 4687 1680 4629C 1770 4598 1783 4596 1930 4596C 2066 4595 2094 4598 2160 4618C 2411 4697 2567 4854 2678 5140C 2734 5285 2755 5513 2727 5675C 2689 5889 2597 6111 2483 6265C 2370 6417 2175 6570 1997 6647C 1853 6710 1671 6734 1535 6708z" stroke="none" fill="#000000" fill-rule="nonzero" />
        <path d="M8500 6714C 8300 6675 8145 6598 7962 6446C 7729 6252 7577 5952 7540 5610C 7497 5217 7677 4832 7976 4678C 8118 4605 8161 4595 8340 4596C 8482 4596 8502 4599 8580 4624C 8817 4703 9025 4859 9167 5066C 9374 5369 9454 5737 9380 6045C 9280 6464 9013 6702 8630 6715C 8572 6717 8514 6716 8500 6714z" stroke="none" fill="#000000" fill-rule="nonzero" />
        <path d="M5020 5644C 4555 5590 4158 5405 3610 4986C 3386 4815 3106 4558 2944 4375C 2488 3858 2161 3317 2026 2852C 1977 2682 1962 2604 1948 2441C 1917 2064 2030 1799 2306 1606C 2540 1441 2938 1360 3318 1400C 3581 1428 3805 1479 4217 1606C 4623 1731 4830 1779 5044 1799C 5263 1820 5555 1766 6035 1615C 6653 1420 7004 1363 7348 1401C 7795 1450 8096 1624 8246 1921C 8300 2029 8321 2126 8327 2288C 8338 2587 8269 2872 8093 3255C 7861 3757 7380 4382 6910 4789C 6356 5269 5859 5544 5395 5626C 5314 5640 5084 5652 5020 5644z" stroke="none" fill="#000000" fill-rule="nonzero" />
	</g>
</g>
</svg>
